src/assets/Imgs/social/github.svg

<svg fill="none" height="24" viewBox="0 0 24 24" width="24" xmlns="http://www.w3.org/2000/svg"><path d="m11.9993 6c-3.3128 0-5.9993 2.75434-5.9993 6.1521-.00135 1.2895.39414 2.5468 1.13058 3.5943.73643 1.0474 1.77658 1.832 2.97342 2.2429.3.0567.4095-.1332.4095-.2964 0-.1463-.0052-.5331-.0082-1.0463-1.6688.3715-2.0213-.8249-2.0213-.8249-.27225-.7108-.666-.9-.666-.9-.54525-.3814.0405-.3738.0405-.3738.60225.0437.91875.6342.91875.6342.5355.9399 1.40475.6687 1.74675.5109.054-.3975.2093-.6686.381-.8226-1.332-.1555-2.733-.6832-2.733-3.04 0-.6718.234-1.2209.618-1.6514-.06225-.1555-.26775-.78127.0585-1.62764 0 0 .504-.16544 1.65.63037.4896-.13663.9947-.20618 1.5023-.2068.5075.00103 1.0126.07083 1.5022.20757 1.1452-.79582 1.6485-.63037 1.6485-.63037.327.84713.1215 1.47217.06 1.62767.3847.4304.6165.9796.6165 1.6513 0 2.363-1.4025 2.8831-2.739 3.0355.2152.1899.4072.5652.4072 1.1389 0 .8227-.0075 1.486-.0075 1.6874 0 .1647.108.3562.4125.2957 1.1957-.4119 2.2346-1.1968 2.97-2.244s1.1302-2.3038 1.1288-3.5925c0-3.39776-2.6865-6.1521-6.0007-6.1521z" fill="#fff"/></svg>

<svg width="24" height="24" viewBox="0 0 24 24" fill="none" xmlns="http://www.w3.org/2000/svg">
<g id="Dis">
<g id="medium">
<path id="Vector" d="M11.9993 6C8.6865 6 6 8.75434 6 12.1521C5.99865 13.4416 6.39414 14.6989 7.13058 15.7464C7.86701 16.7938 8.90716 17.5784 10.104 17.9893C10.404 18.046 10.5135 17.8561 10.5135 17.6929C10.5135 17.5466 10.5083 17.1598 10.5053 16.6466C8.8365 17.0181 8.484 15.8217 8.484 15.8217C8.21175 15.1109 7.818 14.9217 7.818 14.9217C7.27275 14.5403 7.8585 14.5479 7.8585 14.5479C8.46075 14.5916 8.77725 15.1821 8.77725 15.1821C9.31275 16.122 10.182 15.8508 10.524 15.693C10.578 15.2955 10.7333 15.0244 10.905 14.8704C9.573 14.7149 8.172 14.1872 8.172 11.8304C8.172 11.1586 8.406 10.6095 8.79 10.179C8.72775 10.0235 8.52225 9.39773 8.8485 8.55136C8.8485 8.55136 9.3525 8.38592 10.4985 9.18173C10.9881 9.0451 11.4932 8.97555 12.0008 8.97493C12.5083 8.97596 13.0134 9.04576 13.503 9.1825C14.6482 8.38668 15.1515 8.55213 15.1515 8.55213C15.4785 9.39926 15.273 10.0243 15.2115 10.1798C15.5962 10.6102 15.828 11.1594 15.828 11.8311C15.828 14.1941 14.4255 14.7142 13.089 14.8666C13.3042 15.0565 13.4962 15.4318 13.4962 16.0055C13.4962 16.8282 13.4887 17.4915 13.4887 17.6929C13.4887 17.8576 13.5967 18.0491 13.9012 17.9886C15.0969 17.5767 16.1358 16.7918 16.8712 15.7446C17.6066 14.6974 18.0014 13.4408 18 12.1521C18 8.75434 15.3135 6 11.9993 6Z" fill="white"/>
</g>
</g>
</svg>
